static/logos/rainbow-wordmark-color.svg

<svg width="100" height="25" viewBox="0 0 100 25" fill="none" xmlns="http://www.w3.org/2000/svg">
<g clip-path="url(#clip0_1_1392)">
<path d="M18.9171 0H5.6112C2.51222 0 0 2.51222 0 5.6112V18.9171C0 22.0161 2.51222 24.5283 5.6112 24.5283H18.9171C22.0161 24.5283 24.5283 22.0161 24.5283 18.9171V5.6112C24.5283 2.51222 22.0161 0 18.9171 0Z" fill="url(#paint0_linear_1_1392)"/>
<path d="M13.3816 6.17036C11.264 4.89794 8.92397 4.19507 6.38529 4.06893C5.78672 4.03919 5.63882 4.04095 5.45985 4.07989C4.99265 4.18153 4.60607 4.58736 4.52799 5.05811C4.48947 5.29035 4.50192 7.21144 4.50192 7.21144L4.50195 7.25974L4.50843 10.0145L4.51492 12.7694L4.56831 12.9095C4.7222 13.3136 5.02485 13.5921 5.41461 13.6882C5.49274 13.7075 5.71115 13.7296 5.89996 13.7373C7.22265 13.7911 8.41309 14.2974 9.35384 15.2064C10.3401 16.1594 10.903 17.4106 10.9577 18.7712C10.9653 18.96 10.9865 19.1827 11.005 19.266C11.0914 19.6558 11.3782 19.9708 11.7905 20.1284L11.9255 20.1799L14.6778 20.1864L17.4183 20.1799H17.4894L18.4719 20.1864C19.0752 20.1904 19.5184 20.1833 19.6202 20.168C20.1279 20.0915 20.5462 19.6736 20.6273 19.1619C20.6573 18.9727 20.6423 18.428 20.5887 17.7568C20.2065 12.9705 17.5254 8.66031 13.3816 6.17036Z" fill="#EE421B"/>
<mask id="mask0_1_1392" style="mask-type:alpha" maskUnits="userSpaceOnUse" x="4" y="4" width="17" height="17">
<path d="M13.3815 6.17036C11.264 4.89794 8.924 4.19507 6.38532 4.06893C5.78672 4.03919 5.63881 4.04095 5.45985 4.07989C4.99265 4.18153 4.60607 4.58736 4.52798 5.05811C4.48947 5.29035 4.50192 7.21144 4.50192 7.21144L4.50194 7.25974L4.50843 10.0145L4.51491 12.7694L4.5683 12.9095C4.7222 13.3136 5.02485 13.5921 5.41461 13.6882C5.49273 13.7075 5.71115 13.7296 5.89996 13.7373C7.22268 13.7911 8.41305 14.2974 9.35387 15.2064C10.3401 16.1594 10.903 17.4106 10.9577 18.7712C10.9653 18.96 10.9866 19.1827 11.0051 19.266C11.0914 19.6558 11.3782 19.9708 11.7905 20.1284L11.9255 20.1799L14.6778 20.1864L17.4183 20.1799H17.4893L18.4719 20.1864C19.0752 20.1904 19.5184 20.1833 19.6202 20.168C20.1279 20.0915 20.5462 19.6736 20.6273 19.1619C20.6573 18.9727 20.6424 18.428 20.5887 17.7568C20.2064 12.9705 17.5254 8.66031 13.3815 6.17036Z" fill="url(#paint1_radial_1_1392)"/>
</mask>
<g mask="url(#mask0_1_1392)">
<g filter="url(#filter0_f_1_1392)">
<path d="M17.9471 1.45586C15.8295 0.183438 9.58299 0.563935 7.04431 0.437789C6.44569 0.408052 1.10302 4.02993 0.92405 4.06888C0.456853 4.17052 0.0702711 4.57635 -0.0078125 5.0471C0.665516 4.92952 7.80236 4.99832 9.90481 6.1703C12.5328 7.63528 14.5098 8.23899 16.2026 10.5238C17.8954 12.8085 19.2462 16.2178 19.6754 18.0645C20.0188 19.5419 19.486 25.1844 19.486 25.2857C19.9937 25.2092 25.2291 19.9969 25.3103 19.4851C25.3403 19.296 24.0027 15.9894 23.949 15.3181C23.5667 10.5319 22.0908 3.94578 17.9471 1.45586Z" fill="#8753C8"/>
</g>
<path fill-rule="evenodd" clip-rule="evenodd" d="M17.4014 20.1804V18.941C17.4014 12.4946 12.1756 7.26874 5.72919 7.26874H4.5L4.50647 10.015L4.51295 12.7697L4.56634 12.9099C4.72023 13.314 5.02289 13.5925 5.41264 13.6887C5.49077 13.7079 5.70918 13.73 5.89799 13.7377C7.22072 13.7914 8.41109 14.2978 9.35191 15.2069C10.3381 16.1597 10.901 17.4109 10.9557 18.7716C10.9634 18.9604 10.9846 19.1831 11.003 19.2663C11.0894 19.6562 11.3763 19.9711 11.7885 20.1287L11.9235 20.1803L14.6758 20.1868L17.4014 20.1804Z" fill="#FFF000"/>
</g>
<mask id="mask1_1_1392" style="mask-type:alpha" maskUnits="userSpaceOnUse" x="4" y="7" width="14" height="14">
<path fill-rule="evenodd" clip-rule="evenodd" d="M17.4014 20.18V18.9406C17.4014 12.4942 12.1756 7.26833 5.72918 7.26833H4.5L4.50646 10.0146L4.51295 12.7693L4.56634 12.9095C4.72023 13.3136 5.02288 13.5921 5.41264 13.6883C5.49077 13.7075 5.70918 13.7296 5.89799 13.7373C7.22068 13.791 8.41112 14.2974 9.35187 15.2064C10.3381 16.1594 10.9011 17.4105 10.9557 18.7712C10.9633 18.96 10.9846 19.1827 11.0031 19.2659C11.0894 19.6558 11.3762 19.9707 11.7885 20.1283L11.9235 20.1799L14.6758 20.1864L17.4014 20.18Z" fill="url(#paint2_radial_1_1392)"/>
</mask>
<g mask="url(#mask1_1_1392)">
<g filter="url(#filter1_f_1_1392)">
<path d="M17.947 4.67605C15.8295 3.40364 9.58296 3.78413 7.04428 3.65799C6.44566 3.62825 1.10302 7.25012 0.924048 7.28905C0.456853 7.39069 0.070271 7.79654 -0.0078125 8.26729C0.665519 8.14974 7.80239 8.21855 9.90478 9.3905C12.5328 10.8555 13.0343 11.6486 14.7272 13.9333C16.42 16.2181 16.3932 21.048 16.8225 22.8947C17.1659 24.3721 19.0006 28.2152 19.0006 28.3165C19.5084 28.2401 25.2291 23.2171 25.3103 22.7053C25.3404 22.5162 24.0026 19.2096 23.9489 18.5384C23.5667 13.7521 22.0909 7.16597 17.947 4.67605Z" fill="#FF9B00"/>
</g>
<path fill-rule="evenodd" clip-rule="evenodd" d="M14.2288 20.1862C14.229 20.1657 14.2291 20.1452 14.2291 20.1247V19.154C14.2291 14.3813 10.36 10.5123 5.58732 10.5123H4.66396C4.6118 10.5123 4.55976 10.5127 4.50781 10.5136L4.51314 12.7696L4.56653 12.9098C4.72042 13.3139 5.02308 13.5924 5.41283 13.6886C5.49096 13.7078 5.70937 13.7299 5.89818 13.7376C7.22088 13.7913 8.41132 14.2977 9.35208 15.2067C10.3383 16.1596 10.9012 17.4108 10.9559 18.7715C10.9635 18.9603 10.9848 19.183 11.0033 19.2662C11.0896 19.6561 11.3764 19.971 11.7887 20.1286C11.7887 20.1286 11.8733 20.1839 11.9798 20.1839L14.2288 20.1862Z" fill="#00B1E2"/>
</g>
<mask id="mask2_1_1392" style="mask-type:alpha" maskUnits="userSpaceOnUse" x="4" y="10" width="11" height="11">
<path fill-rule="evenodd" clip-rule="evenodd" d="M14.2288 20.1855C14.229 20.1653 14.2291 20.1449 14.2291 20.1246V19.1539C14.2291 14.3812 10.36 10.5122 5.58732 10.5122H4.66396C4.6118 10.5122 4.55976 10.5126 4.50781 10.5135L4.51314 12.7695L4.56653 12.9097C4.72042 13.3138 5.02308 13.5923 5.41283 13.6885C5.49096 13.7077 5.70937 13.7298 5.89818 13.7375C7.22088 13.7912 8.41132 14.2976 9.35208 15.2066C10.3383 16.1595 10.9012 17.4107 10.9559 18.7714C10.9635 18.9602 10.9848 19.1829 11.0033 19.2661C11.0896 19.656 11.3764 19.9709 11.7887 20.1285L11.9237 20.1801L14.2288 20.1855Z" fill="url(#paint3_radial_1_1392)"/>
</mask>
<g mask="url(#mask2_1_1392)">
<g filter="url(#filter2_f_1_1392)">
<path d="M17.947 7.91965C15.8295 6.64719 9.58296 7.0277 7.04428 6.90153C6.44566 6.87185 1.10302 10.4937 0.924048 10.5327C0.456853 10.6343 0.070271 11.0401 -0.0078125 11.5108C0.665519 11.3933 7.74749 11.8971 9.84988 13.0691C12.4779 14.5341 12.9988 18.8461 12.9988 18.8461C12.9988 18.8461 13.2088 25.6647 13.6381 27.5115C13.9815 28.9889 19.0006 31.4588 19.0006 31.5601C19.5084 31.4836 25.2291 26.4607 25.3103 25.9489C25.3404 25.7597 24.0026 22.4531 23.9489 21.7819C23.5667 16.9957 22.0909 10.4095 17.947 7.91965Z" fill="#00DA42"/>
</g>
</g>
<path d="M33.8609 17.7483C34.4861 17.7483 34.8545 17.3666 34.8545 16.715V14.1355H36.5457L38.1251 16.9981C38.4476 17.5771 38.6647 17.7483 39.1385 17.7483C39.7176 17.7483 40.1388 17.3666 40.1388 16.8401C40.1388 16.6098 40.0927 16.4387 39.9282 16.1557L38.5595 13.7867C39.6057 13.3392 40.1914 12.3258 40.1914 11.1413C40.1914 9.2658 38.9411 8.11423 36.7563 8.11423H33.8609C33.2357 8.11423 32.8672 8.49586 32.8672 9.14737V16.715C32.8672 17.3666 33.2423 17.7483 33.8609 17.7483ZM34.8545 12.6943V9.66725H36.5457C37.5328 9.66725 38.1514 10.2595 38.1514 11.1808C38.1514 12.1218 37.5657 12.6943 36.5655 12.6943H34.8545Z" fill="black"/>
<path d="M43.1125 17.7218C43.9943 17.7218 44.876 17.281 45.2709 16.5308H45.3104V16.8927C45.3499 17.4586 45.7118 17.7482 46.2316 17.7482C46.7779 17.7482 47.1661 17.4191 47.1661 16.7808V12.7601C47.1661 11.3386 45.9882 10.4042 44.1785 10.4042C42.7176 10.4042 41.5857 10.9241 41.2567 11.7664C41.1909 11.9112 41.158 12.0494 41.158 12.2007C41.158 12.6351 41.4936 12.9378 41.9608 12.9378C42.2701 12.9378 42.5136 12.8193 42.7242 12.5824C43.1519 12.0296 43.5073 11.8388 44.093 11.8388C44.8168 11.8388 45.2775 12.2205 45.2775 12.8785V13.3457L43.5007 13.451C41.7371 13.5563 40.75 14.3 40.75 15.5832C40.75 16.8532 41.77 17.7218 43.1125 17.7218ZM43.7442 16.3334C43.0993 16.3334 42.665 16.0043 42.665 15.4779C42.665 14.9778 43.073 14.6553 43.7903 14.6027L45.2775 14.5105V15.0238C45.2775 15.7871 44.5865 16.3334 43.7442 16.3334Z" fill="black"/>
<path d="M49.1359 9.6804C49.715 9.6804 50.1625 9.23952 50.1625 8.68675C50.1625 8.12738 49.715 7.69304 49.1359 7.69304C48.5568 7.69304 48.1094 8.12738 48.1094 8.68675C48.1094 9.23952 48.5568 9.6804 49.1359 9.6804ZM49.1359 17.7483C49.7282 17.7483 50.0967 17.3732 50.0967 16.748V11.4177C50.0967 10.7925 49.7282 10.4108 49.1359 10.4108C48.5371 10.4108 48.1752 10.7925 48.1752 11.4177V16.748C48.1752 17.3732 48.5371 17.7483 49.1359 17.7483Z" fill="black"/>
<path d="M52.0701 17.7482C52.636 17.7482 53.0309 17.406 53.0309 16.748V13.563C53.0309 12.6482 53.5771 12.0165 54.4391 12.0165C55.3012 12.0165 55.7355 12.543 55.7355 13.4642V16.748C55.7355 17.406 56.1304 17.7482 56.6963 17.7482C57.2557 17.7482 57.657 17.406 57.657 16.748V13.0628C57.657 11.4111 56.7753 10.424 55.2091 10.424C54.1233 10.424 53.4126 10.9044 53.0375 11.7796H52.998V11.3848C52.998 10.7794 52.6163 10.4108 52.0372 10.4108C51.4581 10.4108 51.1094 10.7794 51.1094 11.3782V16.748C51.1094 17.406 51.5108 17.7482 52.0701 17.7482Z" fill="black"/>
<path d="M59.5894 17.7482C60.1488 17.7482 60.5437 17.4126 60.5437 16.7743V16.3992H60.5832C60.978 17.2217 61.7611 17.7219 62.7942 17.7219C64.5774 17.7219 65.6566 16.3531 65.6566 14.0828C65.6566 11.8059 64.5711 10.4437 62.7876 10.4437C61.7874 10.4437 60.9977 10.9438 60.6094 11.7796H60.5699V8.97628C60.5699 8.31816 60.1751 7.96942 59.6092 7.96942C59.0498 7.96942 58.6484 8.31816 58.6484 8.97628V16.7743C58.6484 17.4192 59.0367 17.7482 59.5894 17.7482ZM62.1362 16.1755C61.2017 16.1755 60.5634 15.3594 60.5634 14.0828C60.5634 12.8193 61.2017 11.9836 62.1362 11.9836C63.0906 11.9836 63.6893 12.7996 63.6893 14.0828C63.6893 15.3726 63.0906 16.1755 62.1362 16.1755Z" fill="black"/>
<path d="M69.6272 17.7613C71.7592 17.7613 73.1215 16.3991 73.1215 14.0762C73.1215 11.7861 71.7397 10.4042 69.6272 10.4042C67.5146 10.4042 66.1328 11.7927 66.1328 14.0762C66.1328 16.3925 67.4951 17.7613 69.6272 17.7613ZM69.6272 16.2939C68.6794 16.2939 68.0806 15.4976 68.0806 14.0828C68.0806 12.6811 68.6926 11.8717 69.6272 11.8717C70.5617 11.8717 71.1668 12.6811 71.1668 14.0828C71.1668 15.4976 70.568 16.2939 69.6272 16.2939Z" fill="black"/>
<path d="M76.1503 17.7482C76.8352 17.7482 77.2163 17.4389 77.3811 16.7414L78.4471 12.6219H78.4868L79.5591 16.7282C79.7239 17.4455 80.0987 17.7482 80.8031 17.7482C81.4679 17.7482 81.8364 17.4323 82.0333 16.7348L83.4553 11.8125C83.5276 11.5625 83.5603 11.4045 83.5603 11.2269C83.5603 10.7464 83.1855 10.4108 82.6522 10.4108C82.1786 10.4108 81.8691 10.7004 81.7635 11.2137L80.7107 15.7872H80.6717L79.5723 11.2927C79.4471 10.7201 79.0723 10.4108 78.5 10.4108C77.9144 10.4108 77.539 10.7201 77.4138 11.2927L76.3213 15.7872H76.2823L75.2358 11.2269C75.1239 10.7004 74.8144 10.4108 74.3346 10.4108C73.7949 10.4108 73.4062 10.753 73.4062 11.2334C73.4062 11.4177 73.4396 11.5756 73.5119 11.8257L74.9333 16.7414C75.1371 17.4389 75.4861 17.7482 76.1503 17.7482Z" fill="black"/>
<path d="M85.314 17.7351C85.9392 17.7351 86.3077 17.3535 86.3077 16.7019V14.708L87.2555 13.7143L90.0851 17.1955C90.3945 17.5903 90.6706 17.7417 91.0788 17.7417C91.6247 17.7417 92.0392 17.3206 92.0392 16.7809C92.0392 16.5111 91.9077 16.2282 91.6115 15.8596L88.7624 12.3982L91.3813 9.65415C91.6316 9.39087 91.7304 9.1737 91.7304 8.89735C91.7304 8.38408 91.3222 7.98264 90.7958 7.98264C90.4668 7.98264 90.2165 8.10767 89.9404 8.41037L86.3669 12.3127H86.3077V9.02238C86.3077 8.36433 85.9392 7.98264 85.314 7.98264C84.6889 7.98264 84.3203 8.36433 84.3203 9.02238V16.7019C84.3203 17.3535 84.6889 17.7351 85.314 17.7351Z" fill="black"/>
<path d="M93.792 9.6804C94.3713 9.6804 94.8185 9.23952 94.8185 8.68675C94.8185 8.12738 94.3713 7.69304 93.792 7.69304C93.2128 7.69304 92.7656 8.12738 92.7656 8.68675C92.7656 9.23952 93.2128 9.6804 93.792 9.6804ZM93.792 17.7483C94.3845 17.7483 94.753 17.3732 94.753 16.748V11.4177C94.753 10.7925 94.3845 10.4108 93.792 10.4108C93.1933 10.4108 92.831 10.7925 92.831 11.4177V16.748C92.831 17.3732 93.1933 17.7483 93.792 17.7483Z" fill="black"/>
<path d="M96.276 15.807C96.276 17.0508 96.9276 17.6891 98.2112 17.6891H98.2766C99.0861 17.6891 99.6389 17.3995 99.6389 16.8336C99.6389 16.3861 99.3823 16.1887 98.9087 16.136L98.7836 16.1229C98.3691 16.0899 98.198 15.8794 98.198 15.3792V12.0034H98.8754C99.3295 12.0034 99.6125 11.7204 99.6125 11.2796C99.6125 10.8386 99.3295 10.5557 98.8754 10.5557H98.198V9.77258C98.198 9.15402 97.8358 8.77232 97.237 8.77232C96.6383 8.77232 96.276 9.15402 96.276 9.77258V10.5557H95.9081C95.454 10.5557 95.1641 10.8321 95.1641 11.2796C95.1641 11.727 95.454 12.0034 95.9081 12.0034H96.276V15.807Z" fill="black"/>
</g>
<defs>
<filter id="filter0_f_1_1392" x="-2.70687" y="-2.26145" width="30.7184" height="30.2462" filterUnits="userSpaceOnUse" color-interpolation-filters="sRGB">
<feFlood flood-opacity="0" result="BackgroundImageFix"/>
<feBlend mode="normal" in="SourceGraphic" in2="BackgroundImageFix" result="shape"/>
<feGaussianBlur stdDeviation="1.34953" result="effect1_foregroundBlur_1_1392"/>
</filter>
<filter id="filter1_f_1_1392" x="-2.70687" y="0.95875" width="30.7184" height="30.0568" filterUnits="userSpaceOnUse" color-interpolation-filters="sRGB">
<feFlood flood-opacity="0" result="BackgroundImageFix"/>
<feBlend mode="normal" in="SourceGraphic" in2="BackgroundImageFix" result="shape"/>
<feGaussianBlur stdDeviation="1.34953" result="effect1_foregroundBlur_1_1392"/>
</filter>
<filter id="filter2_f_1_1392" x="-2.70687" y="4.2023" width="30.7184" height="30.0569" filterUnits="userSpaceOnUse" color-interpolation-filters="sRGB">
<feFlood flood-opacity="0" result="BackgroundImageFix"/>
<feBlend mode="normal" in="SourceGraphic" in2="BackgroundImageFix" result="shape"/>
<feGaussianBlur stdDeviation="1.34953" result="effect1_foregroundBlur_1_1392"/>
</filter>
<linearGradient id="paint0_linear_1_1392" x1="12.2642" y1="0" x2="12.2642" y2="24.5283" gradientUnits="userSpaceOnUse">
<stop stop-color="#174197"/>
<stop offset="1" stop-color="#011E5A"/>
</linearGradient>
<radialGradient id="paint1_radial_1_1392" cx="0" cy="0" r="1" gradientUnits="userSpaceOnUse" gradientTransform="translate(11.3424 14.8328) rotate(133.13) scale(20.5192 20.5236)">
<stop stop-color="#EF421B"/>
<stop offset="1" stop-color="#8753C8"/>
</radialGradient>
<radialGradient id="paint2_radial_1_1392" cx="0" cy="0" r="1" gradientUnits="userSpaceOnUse" gradientTransform="translate(10.1211 14.963) rotate(-45.6856) scale(4.89723 4.89094)">
<stop stop-color="#FFF100"/>
<stop offset="1" stop-color="#FF9A00"/>
</radialGradient>
<radialGradient id="paint3_radial_1_1392" cx="0" cy="0" r="1" gradientUnits="userSpaceOnUse" gradientTransform="translate(13.4241 11.6604) rotate(133.925) scale(8.92478 8.96887)">
<stop stop-color="#05DA40"/>
<stop offset="1" stop-color="#00B1E3"/>
</radialGradient>
<clipPath id="clip0_1_1392">
<rect width="100" height="24.5283" fill="white"/>
</clipPath>
</defs>
</svg>

<svg xmlns="http://www.w3.org/2000/svg" width="256" height="64" fill="none" viewBox="0 0 100 25"><g clip-path="url(#a)"><path fill="url(#b)" d="M18.917 0H5.611A5.611 5.611 0 0 0 0 5.611v13.306a5.611 5.611 0 0 0 5.611 5.611h13.306a5.611 5.611 0 0 0 5.611-5.61V5.61A5.611 5.611 0 0 0 18.918 0Z"/><path fill="#EE421B" d="M13.382 6.17C11.264 4.898 8.924 4.195 6.385 4.07c-.598-.03-.746-.028-.925.01a1.235 1.235 0 0 0-.932.98c-.039.231-.026 2.152-.026 2.152v.049l.006 2.755.007 2.754.053.14c.154.405.457.683.847.78.078.018.296.04.485.048a5.19 5.19 0 0 1 3.454 1.47 5.2 5.2 0 0 1 1.604 3.564c.007.189.028.412.047.495.086.39.373.705.785.862l.136.052 2.752.006 2.74-.006h.071l.983.006c.603.004 1.046-.003 1.148-.018a1.223 1.223 0 0 0 1.007-1.006c.03-.19.015-.734-.038-1.405A14.91 14.91 0 0 0 13.382 6.17Z"/><mask id="d" width="17" height="17" x="4" y="4" maskUnits="userSpaceOnUse" style="mask-type:alpha"><path fill="url(#c)" d="M13.382 6.17C11.264 4.898 8.924 4.195 6.385 4.07c-.598-.03-.746-.028-.925.01a1.235 1.235 0 0 0-.932.98c-.039.231-.026 2.152-.026 2.152v.049l.006 2.755.007 2.754.053.14c.154.405.457.683.847.78.078.018.296.04.485.048a5.19 5.19 0 0 1 3.454 1.47 5.2 5.2 0 0 1 1.604 3.564c.007.189.029.412.047.495.086.39.373.705.785.862l.136.052 2.752.006 2.74-.006h.071l.983.006c.603.004 1.046-.003 1.148-.018a1.223 1.223 0 0 0 1.007-1.006c.03-.19.015-.734-.038-1.405A14.91 14.91 0 0 0 13.382 6.17Z"/></mask><g mask="url(#d)"><g filter="url(#e)"><path fill="#8753C8" d="M17.947 1.456C15.83.183 9.583.564 7.044.438 6.446.408 1.103 4.03.924 4.068a1.235 1.235 0 0 0-.932.98c.674-.118 7.81-.05 9.913 1.122 2.628 1.465 4.605 2.069 6.298 4.354 1.692 2.285 3.043 5.694 3.472 7.54.344 1.478-.189 7.12-.189 7.222.508-.077 5.743-5.29 5.824-5.8.03-.19-1.307-3.497-1.361-4.168-.382-4.786-1.858-11.372-6.002-13.862Z"/></g><path fill="#FFF000" fill-rule="evenodd" d="M17.401 20.18v-1.239c0-6.446-5.225-11.672-11.672-11.672H4.5l.006 2.746.007 2.755.053.14c.154.404.457.682.847.779.078.019.296.041.485.049a5.19 5.19 0 0 1 3.454 1.469 5.2 5.2 0 0 1 1.604 3.565c.007.188.029.411.047.494.086.39.373.705.786.863l.135.051 2.752.007 2.725-.007Z" clip-rule="evenodd"/></g><mask id="g" width="14" height="14" x="4" y="7" maskUnits="userSpaceOnUse" style="mask-type:alpha"><path fill="url(#f)" fill-rule="evenodd" d="M17.401 20.18v-1.24c0-6.446-5.225-11.672-11.672-11.672H4.5l.006 2.747.007 2.754.053.14c.154.405.457.683.847.78.078.018.296.04.485.048a5.19 5.19 0 0 1 3.454 1.47 5.2 5.2 0 0 1 1.604 3.564c.007.189.029.412.047.495.086.39.373.705.786.862l.135.052 2.752.006 2.725-.006Z" clip-rule="evenodd"/></mask><g mask="url(#g)"><g filter="url(#h)"><path fill="#FF9B00" d="M17.947 4.676C15.83 3.404 9.583 3.784 7.044 3.658c-.598-.03-5.941 3.592-6.12 3.631a1.235 1.235 0 0 0-.932.978c.674-.117 7.81-.048 9.913 1.123 2.628 1.465 3.13 2.259 4.822 4.543 1.693 2.285 1.666 7.115 2.096 8.962.343 1.477 2.178 5.32 2.178 5.422.507-.077 6.228-5.1 6.31-5.612.03-.189-1.308-3.495-1.362-4.167-.382-4.786-1.858-11.372-6.002-13.862Z"/></g><path fill="#00B1E2" fill-rule="evenodd" d="M14.229 20.186v-1.032a8.642 8.642 0 0 0-8.642-8.642h-.923c-.052 0-.104 0-.156.002l.005 2.256.054.14c.153.404.456.682.846.779.078.019.296.04.485.049a5.19 5.19 0 0 1 3.454 1.469 5.2 5.2 0 0 1 1.604 3.564c.008.19.029.412.047.495.087.39.373.705.786.863 0 0 .084.055.19.055l2.25.002Z" clip-rule="evenodd"/></g><mask id="j" width="11" height="11" x="4" y="10" maskUnits="userSpaceOnUse" style="mask-type:alpha"><path fill="url(#i)" fill-rule="evenodd" d="M14.229 20.186v-1.032a8.642 8.642 0 0 0-8.642-8.642h-.923c-.052 0-.104 0-.156.002l.005 2.256.054.14c.153.404.456.682.846.778.078.02.296.042.485.05a5.19 5.19 0 0 1 3.454 1.469 5.2 5.2 0 0 1 1.604 3.564c.008.19.029.412.047.495.087.39.373.705.786.863l.135.051 2.305.006Z" clip-rule="evenodd"/></mask><g filter="url(#k)" mask="url(#j)"><path fill="#00DA42" d="M17.947 7.92C15.83 6.647 9.583 7.028 7.044 6.902c-.598-.03-5.941 3.592-6.12 3.63a1.235 1.235 0 0 0-.932.979c.674-.118 7.755.386 9.858 1.558 2.628 1.465 3.149 5.777 3.149 5.777s.21 6.819.64 8.666C13.981 28.989 19 31.459 19 31.56c.507-.076 6.228-5.1 6.31-5.611.03-.19-1.308-3.496-1.362-4.167-.382-4.786-1.858-11.373-6.002-13.862Z"/></g><path fill="#000" d="M33.86 17.748c.626 0 .995-.381.995-1.033v-2.58h1.69l1.58 2.863c.323.58.54.75 1.014.75.579 0 1-.381 1-.908 0-.23-.046-.401-.21-.684l-1.37-2.37c1.047-.447 1.632-1.46 1.632-2.645 0-1.875-1.25-3.027-3.435-3.027h-2.895c-.625 0-.994.382-.994 1.033v7.568c0 .652.375 1.033.994 1.033Zm.995-5.054V9.667h1.69c.988 0 1.606.592 1.606 1.514 0 .94-.585 1.513-1.586 1.513h-1.71ZM43.112 17.722c.882 0 1.764-.441 2.159-1.191h.04v.362c.039.566.4.855.92.855.547 0 .935-.329.935-.967v-4.02c0-1.422-1.178-2.357-2.987-2.357-1.461 0-2.593.52-2.922 1.362a1.02 1.02 0 0 0-.099.435c0 .434.336.737.803.737a.97.97 0 0 0 .763-.356c.428-.552.783-.743 1.369-.743.724 0 1.184.381 1.184 1.04v.467l-1.776.105c-1.764.105-2.751.849-2.751 2.132 0 1.27 1.02 2.139 2.362 2.139Zm.632-1.389c-.645 0-1.079-.329-1.079-.855 0-.5.408-.823 1.125-.875l1.488-.092v.513c0 .763-.691 1.31-1.534 1.31ZM49.136 9.68c.579 0 1.026-.44 1.026-.993 0-.56-.447-.994-1.026-.994-.58 0-1.027.434-1.027.994 0 .553.448.993 1.027.993Zm0 8.068c.592 0 .96-.375.96-1v-5.33c0-.625-.368-1.007-.96-1.007-.599 0-.96.382-.96 1.007v5.33c0 .625.361 1 .96 1ZM52.07 17.748c.566 0 .96-.342.96-1v-3.185c0-.915.547-1.546 1.41-1.546.861 0 1.296.526 1.296 1.447v3.284c0 .658.394 1 .96 1 .56 0 .961-.342.961-1v-3.685c0-1.652-.882-2.639-2.448-2.639-1.086 0-1.796.48-2.172 1.356h-.039v-.395c0-.606-.382-.974-.96-.974-.58 0-.929.368-.929.967v5.37c0 .658.402 1 .961 1ZM59.59 17.748c.559 0 .954-.335.954-.974V16.4h.04c.394.823 1.177 1.323 2.21 1.323 1.783 0 2.863-1.369 2.863-3.64 0-2.276-1.086-3.638-2.87-3.638-1 0-1.79.5-2.178 1.336h-.04V8.976c0-.658-.394-1.007-.96-1.007-.56 0-.96.35-.96 1.007v7.798c0 .645.388.974.94.974Zm2.546-1.573c-.934 0-1.573-.816-1.573-2.092 0-1.264.639-2.1 1.573-2.1.955 0 1.553.817 1.553 2.1 0 1.29-.598 2.092-1.553 2.092ZM69.627 17.761c2.132 0 3.495-1.362 3.495-3.685 0-2.29-1.382-3.672-3.495-3.672-2.112 0-3.494 1.389-3.494 3.672 0 2.316 1.362 3.685 3.494 3.685Zm0-1.467c-.948 0-1.546-.796-1.546-2.211 0-1.402.612-2.211 1.546-2.211.935 0 1.54.81 1.54 2.21 0 1.416-.599 2.212-1.54 2.212ZM76.15 17.748c.685 0 1.066-.31 1.231-1.007l1.066-4.12h.04l1.072 4.107c.165.717.54 1.02 1.244 1.02.665 0 1.033-.316 1.23-1.013l1.422-4.922c.073-.25.105-.409.105-.586 0-.48-.374-.816-.908-.816-.473 0-.783.29-.889.803l-1.052 4.573h-.04l-1.099-4.494c-.125-.573-.5-.882-1.072-.882-.586 0-.961.31-1.086.882l-1.093 4.494h-.039l-1.046-4.56c-.112-.527-.422-.816-.901-.816-.54 0-.929.342-.929.822 0 .185.034.343.106.593l1.421 4.915c.204.698.553 1.007 1.217 1.007ZM85.314 17.735c.625 0 .994-.381.994-1.033v-1.994l.947-.994 2.83 3.481c.31.395.586.547.994.547.546 0 .96-.421.96-.961 0-.27-.131-.553-.427-.921l-2.85-3.462 2.62-2.744c.25-.263.348-.48.348-.757a.913.913 0 0 0-.934-.914c-.33 0-.58.125-.856.427l-3.573 3.903h-.06v-3.29c0-.659-.368-1.04-.993-1.04s-.994.381-.994 1.04v7.679c0 .651.369 1.033.994 1.033ZM93.792 9.68c.58 0 1.026-.44 1.026-.993 0-.56-.447-.994-1.026-.994-.58 0-1.026.434-1.026.994 0 .553.447.993 1.026.993Zm0 8.068c.593 0 .961-.375.961-1v-5.33c0-.625-.368-1.007-.961-1.007-.599 0-.961.382-.961 1.007v5.33c0 .625.362 1 .961 1ZM96.276 15.807c0 1.244.652 1.882 1.935 1.882h.066c.81 0 1.362-.29 1.362-.855 0-.448-.257-.645-.73-.698l-.125-.013c-.415-.033-.586-.244-.586-.744v-3.376h.677c.454 0 .737-.283.737-.723 0-.441-.282-.724-.737-.724h-.677v-.783c0-.619-.362-1-.961-1s-.961.381-.961 1v.783h-.368c-.454 0-.744.276-.744.724 0 .447.29.723.744.723h.368v3.804Z"/></g><defs><radialGradient id="c" cx="0" cy="0" r="1" gradientTransform="matrix(-14.02807 14.975 -14.97821 -14.03108 11.342 14.833)" gradientUnits="userSpaceOnUse"><stop stop-color="#EF421B"/><stop offset="1" stop-color="#8753C8"/></radialGradient><radialGradient id="f" cx="0" cy="0" r="1" gradientTransform="matrix(3.42118 -3.50405 3.49955 3.41679 10.121 14.963)" gradientUnits="userSpaceOnUse"><stop stop-color="#FFF100"/><stop offset="1" stop-color="#FF9A00"/></radialGradient><radialGradient id="i" cx="0" cy="0" r="1" gradientTransform="matrix(-6.19126 6.42806 -6.45982 -6.22185 13.424 11.66)" gradientUnits="userSpaceOnUse"><stop stop-color="#05DA40"/><stop offset="1" stop-color="#00B1E3"/></radialGradient><filter id="e" width="30.718" height="30.246" x="-2.707" y="-2.261" color-interpolation-filters="sRGB" filterUnits="userSpaceOnUse"><feFlood flood-opacity="0" result="BackgroundImageFix"/><feBlend in="SourceGraphic" in2="BackgroundImageFix" result="shape"/><feGaussianBlur result="effect1_foregroundBlur_1_1392" stdDeviation="1.35"/></filter><filter id="h" width="30.718" height="30.057" x="-2.707" y=".959" color-interpolation-filters="sRGB" filterUnits="userSpaceOnUse"><feFlood flood-opacity="0" result="BackgroundImageFix"/><feBlend in="SourceGraphic" in2="BackgroundImageFix" result="shape"/><feGaussianBlur result="effect1_foregroundBlur_1_1392" stdDeviation="1.35"/></filter><filter id="k" width="30.718" height="30.057" x="-2.707" y="4.202" color-interpolation-filters="sRGB" filterUnits="userSpaceOnUse"><feFlood flood-opacity="0" result="BackgroundImageFix"/><feBlend in="SourceGraphic" in2="BackgroundImageFix" result="shape"/><feGaussianBlur result="effect1_foregroundBlur_1_1392" stdDeviation="1.35"/></filter><linearGradient id="b" x1="12.264" x2="12.264" y1="0" y2="24.528" gradientUnits="userSpaceOnUse"><stop stop-color="#174197"/><stop offset="1" stop-color="#011E5A"/></linearGradient><clipPath id="a"><path fill="#fff" d="M0 0h100v24.528H0z"/></clipPath></defs></svg>
